X:1
T:4 Gesänge, Op.46
T:An die Nachtigall
T:4 Gesänge, Op.46
T:4. An die Nachtigall
T:Johannes Brahms
T:Ludwig Christoph Heinrich Hölty
T:OpenScore (CC0)
T:OpenScore (CC0)
T:OpenScore (CC0)
T:OpenScore (CC0)
C:Johannes Brahms
Z:Ludwig Christoph Heinrich Hölty
Z:OpenScore (CC0)
%%score 1 { ( 2 5 ) | ( 3 4 ) }
L:1/8
Q:1/4=80
M:4/4
K:E
V:1 treble nm="Voice"
V:2 treble nm="Piano"
V:5 treble 
V:3 treble 
V:4 treble 
V:1
"^Ziemlich langsam" z8 | z2!p! B2 G2 B2 | c6 c2 | f2 d2 A2 B2 | A2 G2 A4 | G4 F4 | D4 z4 | %7
w: |Geuss nicht so|laut der|lieb- ent- flamm- ten|Lie- der ton-|rei- chen|Schall|
 z2 B2 G2 B2 | c6 c2 | f2 c2 d2 e2 | e2 d2 B4 | d4 ^A4 | B4 z4 | z4 z2 B2 | c3 ^E F G A c | %15
w: vom Blü- ten-|ast des|Ap- fel- baums her-|nie- der, o|Nach- ti-|gall!|Du|tö- nest mir mit dei- ner|
 B3 D E2 G B | e6 =G2 | B4 z2 z B |!<(! =c3 c c3!<)! c | =c A B d f2 e z | z4 =g4 | =f4 =c4 | %22
w: sü- ssen Keh- le die|Lie- be|wach; denn|schon durch- bebt die|Tie- fen mei- ner See- le|dein|schmel- zend|
 A4 z4 | z4 =c4 | (B8- | B2 A2) (^G2 ^F2) | E4 z4 | z8 | z2 B2 G2 B2 | =c6 c2 | e2 d2 A2 B2 | %31
w: Ach,|dein|schmel-|* * zend _|Ach.||Dann flieht der|Schlaf von|neu- em die- ses|
 A2 =G2 B4 | =c4 A4 | F4 z4 | z2 B2 =G2 B2 | =c6 ^c2 | =d3 d d2 ^d2 | e4 e2 z2 | z4 ^e4 | f8- | %40
w: La- ger, ich|star- re|dann|mit nas- sem|Blick und|to- ten- bleich und|ha- ger|den|Him-|
 f4 ^A4 | B4 z4 | z8 | z4 z2 B2 | c3 ^E F G A c | B3 D E2 G B | e6 =G2 | B4 z2 B2 | c3 G A2 c2 | %49
w: * mel|an.||Fleuch,|Nach- ti- gall, in grü- ne|Fin- ster- nis- se, ins|Hain- ge-|sträuch, und|spend im Nest der|
 d3 ^A B2 d2 | e8 | A2 z2 B4 | c4 z4 | z4 D4 | E4 z4[Q:1/4=76] | z8[Q:1/4=72][Q:1/4=68] | %56
w: treu- en Gat- tin|Küs-|se; ent-|fleuch,|ent-|fleuch!||
 !fermata!z8 |] %57
w: |
V:2
!p! z!>(! ([gb]2!>)! B) z!p!!>(! ([gb]2!>)! B) | z!p!!>(! ([gb]2!>)! B) z!p!!>(! ([gb]2!>)! B) | %2
!p! z ([efc']2 c) z ([efc']2 c) | z ([fab]2 B) z ([fa]2 A) | z ([eg]2 G) z ([CFA]2 [CFA] | %5
 z [^B,DG]2 [B,DG] z [CF]2 [CF]) | z ([B,DB]2 [B,DB]2 [CEB]2 [DFAB]) | z ([gb]2 B) z ([gb]2 B) | %8
 z ([egc']2 c) z ([egc']2 c) | z ([efc']2 c) z ([e^a]2 ^A) | z ([db]2 B) z ([C^EB]2 [CEB] | %11
 z [DFB]2 [DFB] z [CF^A]2 [CFA]) | z [B,FB]2 [B,FB] z [B,EB]2 [B,EB] | %13
 [B,DB] [B,B]2 [B,B]2 [B,B]2 z/ [Bc]/ |!>(! ([Bcg]4!>)! [Acf]2) z3/2 [Ac]/ | %15
!>(! ([Af]4!>)! [Ge]2) z3/2 [GB]/ | ([=G^Ae] [EGc]2 [CEA]2 [^A,CG]2 [A,CE]) | %17
 [B,DB] [B,B]2 [B,B]2 [B,B]2 z/ [B=c]/ |!>(! ([B=c=g]4!>)! [Acf]2) z3/2 [Ac]/ | %19
!>(! ([Af]4!>)! [=Ge]2) z3/2!mp! [GB]/ |!>(! ([=G_Be] [GBe]2 [GBe]2 [GBe]2 [GBe])!>)! | %21
!p! z ([=FA=f]2 [FAf]2 [FA=c]2 [FAc] | z [=FA]2 [FA]) (A4 | =F4 E4) | %24
[K:bass] ([^F,=B,^D] [F,B,D]2 [F,B,D]2 [E,B,E]2 [G,B,E-] | %25
 [F,^CE] [F,CE]2 [F,CE]2 [A,B,D]2 [A,B,D]) | %26
[K:treble] z!<(! ([G,B,E]2 [B,EG]2 [EGB]2!<)! [E=G^Ac]- | %27
!<(! [EGAc] [FBe]2 [Fd]2!<)! [=Adg]2 [Adf]) |!p! z ([gb]2 B) z ([gb]2 B) | %29
 z ([ef=c']2 =c) z ([efc']2 c) | z ([fab]2 B) z ([fa]2 A) | z ([e=g]2 =G) z ([EB]2 [EB] | %32
 z [EA=c]2!>(! [EAc]2 [=CFA]2 [CFA]) | ([B,DF] [B,DB]2 [B,DB]2 [^CEAB]2!>)! [DFAB]) | %34
!pp! z ([=gb]2 B) z ([gb]2 B) |"_cresc." z ([=gb]2 B) z ([fa]2 A) | z ([a=c']2 =c) z ([=gb]2 B) | %37
!<(! z ([b=d']2 =d) z ([bd']2 d) | z ([b=d']2 =d) [=Gd^e] [Gde]2!<)! [Gde] | %39
!f! ([^F=d^f] [Fdf]2 [Fdf]2!>(! [=Gce]2 [Gce] | z [FB=d]2 [FBd]2 [E^Ac]2 [EAc]) | %41
 z ([=DFB]2 [DFB]2 [CF]2 [CF] | z [B,F]2 [B,F]2 [^A,EF]2!>)! [A,EF]) | %43
!p! [B,^DF] [B,B]2 [B,B]2 [B,B]2 [B,B] | (3:2:2x g2- (3:2:2x x2 (3:2:2x f2- (3:2:2x x2 | %45
 (3:2:2x f2- (3:2:2x x2 (3:2:2x e2- (3:2:2x x2 | (3:2:2x e2- (3:2:2x x2 (3:2:2x ^A2- (3:2:2x x2 | %47
 (3:2:2x B2- (3:2:2x x2 (3:2:2x d2- (3:2:2x x2 | %48
 (3:2:2x g2- (3:2:2x x2 (3:2:2x f2- (3:2:2x!<(! x2 | %49
 (3:2:2x ^a2- (3:2:2x x2 (3:2:2x g2- (3:2:2x x2 | %50
 (3:2:2x b2- (3:2:2x x2 (3:2:2x g2- (3:2:2x x2!<)! | %51
 (3:2:2x a2- (3:2:2x x2 (3:2:2x g2- (3:2:2x x2 | (3:2:2x f2- (3:2:2x x2 (3:2:2x e2- (3:2:2x x2 | %53
 (3:2:2x c2- (3:2:2x x2 (3:2:2x B2- (3:2:2x x2 | %54
 (3:2:2x A2- (3:2:2x x2 (3:2:2x E2- (3:2:2x"_dim." x2 | %55
 (3:2:2x A2- (3:2:2x x2 (3:2:2x E2- (3:2:2x x2 | !fermata![G,B,EG]8 |] %57
V:3
 (E2 G2) (E2 G2) | (E2 G2) (E2 G2) | (E2 F2) (E2 F2) | (D2 F2) (D2 F2) | (C2 E2)[K:bass] (F,,4 | %5
 G,,4 A,,4 | B,,4) z4 |[K:treble] (E2 G2) (E2 G2) | (E2 G2) (E2 G2) | (E2 F2) (C2 F2) | %10
 (B,2 D2)[K:bass] (G,,4 | F,,4 =E,,4 | D,,4 C,,4 | B,,,2) z2 z2 z[K:treble] [B,B]- | %14
 [B,B] [B,B]2 [B,B]2 [B,B]2 [B,B]- | [B,B] [B,B]2 [B,B]2 [B,B]2 [B,B] | B,4[K:bass] [E,,B,,]4 | %17
 [B,,,B,,]2 z2 z2 z[K:treble] [B,B]- | [B,B] [B,B]2 [B,B]2 [B,B]2 [B,B]- | %19
 [B,B] [B,B]2 [B,B]2 [B,B]2 [B,B] | [=C=c]4[K:bass] (=C,4- | C,4 A,,4- | A,,4 =F,,4- | F,,4 A,,4- | %24
 A,,4) (^G,,4 | A,,4 B,,4) | ([E,,B,,]4 E,4 |[K:treble] B,4- [B,B]4) | ((E2 G2)) ((E2 G2)) | %29
 ((E2 F2)) ((E2 F2)) | ((F2 A2)) ((D2 F2)) | ((=C2 E2))[K:bass] (=G,,4 | F,,4 A,,4 | B,,4) z4 | %34
[K:treble] (((E2 =G2))) (((E2 G2))) | (=c2 =G2) (c2 ^c2) | (=d2 A2) (d2 ^d2) | (e2 B2) (e2 ^e2) | %38
 ^G4[K:bass] x4 | ([F,,,F,,]4 F,,4 | F,,,4 F,,4) | (F,,4 E,,4 | =D,,4 C,,4) | B,,,2 z2 z4 | %44
[K:treble] z2 (3z c^E z2 (3z cF | z2 (3z BD z2 (3z BE | z2 (3z EB,[K:bass] E,2 (3z B,E, | %47
 B,,2 (3z B,F, B,,2 (3z[K:treble] BD | z2 (3z B^E z2 (3z AF | z2 (3z c^^F z2 (3z BG | %50
 z2 (3z GE z2 (3z BE | z2 (3z AE z2 (3z BE | z2 (3z EC[K:bass] F,2 (3z CF, | %53
 ^A,,2 (3z CF, B,,2 (3z =A,F, | C,2 (3z A,E, A,,2 (3z E,A,, | E,,2 (3z A,,E,, A,,,2 (3z E,,A,,, | %56
 E,,,2 !fermata![E,,B,,]6 |] %57
V:4
 E4 E4 | E4 E4 | A,4 A,4 | B,4 B,4 | C4[K:bass] x4 | x8 | x8 |[K:treble] E4 E4 | C4 C4 | ^A,4 F,4 | %10
 G,4[K:bass] x4 | x8 | x8 | x7[K:treble] x | x8 | x8 | x4[K:bass] x4 | x7[K:treble] x | x8 | x8 | %20
 x4[K:bass] x4 | x8 | x8 | x8 | x8 | x8 | x8 |[K:treble] x8 | E4 E4 | A,4 A,4 | B,4 B,4 | %31
 =C4[K:bass] x4 | x8 | x8 |[K:treble] E4 E4 | E4 F4 | F4 =G4 | =G4 ^G4 | %38
 (^e2 B2)[K:bass] [B,,,B,,]4 | x8 | x8 | x8 | x8 | x8 |[K:treble] B,4 B,4 | B,4 B,4 | %46
 B,4[K:bass] x4 | x20/3[K:treble] x4/3 | B,4 A,4 | C4 B,4 | =D4 C4 | =C4 B,4 | ^A,4[K:bass] x4 | %53
 x8 | x8 | x8 | x8 |] %57
V:5
 x8 | x8 | x8 | x8 | x8 | x8 | x8 | x8 | x8 | x8 | x8 | x8 | x8 | x8 | x8 | x8 | x8 | x8 | x8 | %19
 x8 | x8 | x8 | x4 z [A,=C]2 [A,C] | z [A,=C] [A,C]2 z [A,C]2 [A,C] |[K:bass] x8 | x8 | %26
[K:treble] x8 | x4!>(! x4!>)! | x8 | x8 | x8 | x8 | x8 | x8 | x8 | x8 | x8 | x8 | x8 | x8 | x8 | %41
 x8 | x8 | x8 | (3z gc (3:2:2B z2 (3z fc (3:2:2A z2 | (3z fB (3:2:2A z2 (3z eB (3:2:2G z2 | %46
 (3z e^A (3:2:2=G z2 (3z AG (3:2:2C z2 | (3z BF (3:2:2D z2 (3z dB (3:2:2F z2 | %48
 (3z gc (3:2:2G z2 (3z fc (3:2:2F z2 | (3z ^ad (3:2:2^A z2 (3z gd (3:2:2G z2 | %50
 (3z be (3:2:2B z2 (3z ge (3:2:2G z2 | (3z ae (3:2:2A z2 (3z ge (3:2:2G z2 | %52
 (3z f!>(!c (3:2:2F z2 (3z e^A (3:2:2E z2 | (3z cF (3:2:2E z2 (3z BD!>)! (3:2:2B, z2 | %54
 (3z AE C2 (3z EC A,2 | (3z A=C A,2 (3z EC A,2 | x8 |] %57

